!!!ONB: MCCC : IJB0010_01 : Extracted Monophonic Melody
!!!COM: Brahms, Johannes
!!!OPR: Cello Sonata No.1
!!!OMV: 1
!!!SCT: Op.38
!!!ODT: 1862///
**kern
*staff1
=1
*clefF4
*k[f#]
*e:
*M4/4
2EE
4.GG
8BB
=2
2C
2BB
=3
8AA
16BB
16AA
8GG
8AA
4.BB
8GG
=4
2EE
2FF#[
=5
8FF#]
8DD#
8FF#
8BB
4.D#
8F#
=6
2F#
2FF#
=7
2G
4.FF#
16GG#
16AA#
=8
2BB
2r
=9
2c
4.d
8e
=10
1d
=11
2c
12d
12r
12e
16r
8.f#
=12
4e
2.d
=13
2e
4.f#
8g
=14
2f#
4.g
8a
=15
2g
4.a
8b
=16
2cc
2cc
=17
2.cc
4a
=18
4g
4f#
4a
4f#
=19
4e
4d#
4f#
4d#
=20
4d
4c
4B
4A
=21
4A
4G
4F#
4E
=22
6A
6G
6F#
6G
6D#
6E
=23
4C
4BB
4GG
4EE
=24
6C
6BB
6AA
6BB
6FF#
6GG
=25
2GG
4r
4GG
=26
8r
8CC
8GG
8C
4.E
8b-
=27
2b-
2B-
=28
8r
8FF
8C
8F
4.A
8cc
=29
2cc
2c
=30
2.BB
8C#
8D#
=31
4E
2BB
8AA
8FF#
=32
1EE
=33
1GG
=34
2CC
4.EE
8GG
=35
2GG#
2GG
=36
8FF#
16GG
16FF#
8EE#
8FF#
4.GG
8GG
=37
2GG#
4GG
4GG
=38
2G
4GG
4GG
=39
2G
4GG
4GG
=40
2FF
2EE
=41
2DD
2GG
=42
4F
4E
4E
4F
=43
2A
4G
4C
=44
4c
4B
4B
4c
=45
2e
4d
4G
=46
4g
4f#
4f#
4g
=47
4g
4f#
4f#
4g
=48
4f
4e
4e
4f
=49
4d#
4d
4d
4d#
=50
4e
4d#
4d#
4e
=51
4e
4d#
4d#
4e
=52
4d
4c#
4c#
4d
=53
4c#
4B
4B
4c#
=54
4B-
4r
8r
8F#
8B-
8c#
=55
2e
4d
4c#
=56
8r
8F#
8B-
8c#
2e
=57
4d
4c#
4r
8r
8F#
=58
4.B
8F#
8B
8d
4B[
=59
8B]
8F#
8B
8d
8B
8F#
8B
8d
=60
4.f#
8g
4.g
8c#
=61
4.f#
8b
4.b
8B
=62
4.c#
8d
4e
8d
8c#
=63
8c#
32c#
32d
32c#
32B#
8c#
8d
8f#
8e
8d
8c#
=64
4.B
8c#
4.B-
8c#
=65
4.G#
8c#
4F#
4r
=66
1r
=67
1r
=68
2r
4r
8r
8FF#
=69
8GG
8AA
8GG
8FF#
8GG
8AA
8GG
8FF
=70
8FF#
8GG
4FF#[
8FF#]
8EE
4EE[
=71
8EE]
8DD#
4DD#[
8DD#]
8DD
4DD
=72
8r
8CC#
8EE
8DD
4CC#
8DD
8EE
=73
8r
8CC#
8EE
8DD
4CC#
8DD
8EE
=74
8r
8FF
4FF[
8FF]
8FF#
4FF#[
=75
8FF#]
8GG
[4GG
8GG]
8FF
4FF
=76
2FF#
2r
=77
2E
2r
=78
4F#
4BB
4f#
4B
=79
4F#
4BB
4F#
4BB
=80
4F#
4BB
4F#
4BB
=81
4F#
4BB
4F#
4BB
=82
4F#
4BB
4r
4f#
=83
4a
4g#
4g
4f#
=84
4e#
8f#
8B
4d
4c#
=85
4d#
8e
8c#
4e
4d#
=86
4c#
4B
2F#
=87
4B
4F#
2D#
=88
1r
=89
1r
=90
1r
=91
2EE
4.GG
8BB
=92
2C
2BB
=93
8AA
16BB
16AA
8GG
8AA
4.BB
8GG
=94
2EE
2FF#[
=95
8FF#]
8DD#
8FF#
8BB
4.D#
8F#
=96
2F#
2FF#
=97
2G
4.FF#
16GG#
16AA#
=98
2BB
2r
=99
2c
4.d
8e
=100
1d
=101
2c
12d
12r
12e
16r
8.f#
=102
4e
2.d
=103
2e
4.f#
8g
=104
2f#
4.g
8a
=105
2g
4.a
8b
=106
2cc
2cc
=107
2.cc
4a
=108
4g
4f#
4a
4f#
=109
4e
4d#
4f#
4d#
=110
4d
4c
4B
4A
=111
4A
4G
4F#
4E
=112
6A
6G
6F#
6G
6D#
6E
=113
4C
4BB
4GG
4EE
=114
6C
6BB
6AA
6BB
6FF#
6GG
=115
2GG
4r
4GG
=116
8r
8CC
8GG
8C
4.E
8b-
=117
2b-
2B-
=118
8r
8FF
8C
8F
4.A
8cc
=119
2cc
2c
=120
2.BB
8C#
8D#
=121
4E
2BB
8AA
8FF#
=122
1EE
=123
1GG
=124
2CC
4.EE
8GG
=125
2GG#
2GG
=126
8FF#
16GG
16FF#
8EE#
8FF#
4.GG
8GG
=127
2GG#
4GG
4GG
=128
2G
4GG
4GG
=129
2G
4GG
4GG
=130
2FF
2EE
=131
2DD
2GG
=132
4F
4E
4E
4F
=133
2A
4G
4C
=134
4c
4B
4B
4c
=135
2e
4d
4G
=136
4g
4f#
4f#
4g
=137
4g
4f#
4f#
4g
=138
4f
4e
4e
4f
=139
4d#
4d
4d
4d#
=140
4e
4d#
4d#
4e
=141
4e
4d#
4d#
4e
=142
4d
4c#
4c#
4d
=143
4c#
4B
4B
4c#
=144
4B-
4r
8r
8F#
8B-
8c#
=145
2e
4d
4c#
=146
8r
8F#
8B-
8c#
2e
=147
4d
4c#
4r
8r
8F#
=148
4.B
8F#
8B
8d
4B[
=149
8B]
8F#
8B
8d
8B
8F#
8B
8d
=150
4.f#
8g
4.g
8c#
=151
4.f#
8b
4.b
8B
=152
4.c#
8d
4e
8d
8c#
=153
8c#
32c#
32d
32c#
32B#
8c#
8d
8f#
8e
8d
8c#
=154
4.B
8c#
4.B-
8c#
=155
4.G#
8c#
4F#
4r
=156
1r
=157
1r
=158
2r
4r
8r
8FF#
=159
8GG
8AA
8GG
8FF#
8GG
8AA
8GG
8FF
=160
8FF#
8GG
4FF#[
8FF#]
8EE
4EE[
=161
8EE]
8DD#
4DD#[
8DD#]
8DD
4DD
=162
8r
8CC#
8EE
8DD
4CC#
8DD
8EE
=163
8r
8CC#
8EE
8DD
4CC#
8DD
8EE
=164
8r
8FF
4FF[
8FF]
8FF#
4FF#[
=165
8FF#]
8GG
[4GG
8GG]
8FF
4FF
=166
2FF#
2r
=167
2E
2r
=168
4F#
4BB
4f#
4B
=169
4F#
4BB
4F#
4BB
=170
4F#
4BB
4F#
4BB
=171
4F#
4BB
4F#
4BB
=172
4F#
4BB
4r
4f#
=173
4a
4g#
4g
4f#
=174
4e#
8f#
8B
4d
4c#
=175
4d#
8e
8c#
4e
4d#
=176
4c#
4B
2F#
=177
4B
4F#
2D#
=178
1r
=179
1r
=180
1r
=181
2G
4.B
8d
=182
2d#
2d
=183
2r
4r
4GG
=184
4FF#
4BB-
4FF
4BB-
=185
4DD#
4BB-
4DD
4BB-
=186
4CC
4C
4FF
4F
=187
4BB-
4BB-
4DD#
4C
=188
4FF
4BB-
4FF
4F
=189
4BB-
4F
4BB-
4F
=190
4AA
4D#
4BB-
8r
8f
=191
2f#
2f
=192
2.C#
8r
8f
=193
2b-
2g#
=194
2g
2f#
=195
8e#
16f#
16e#
8d#
8e#
4.f#
8d#
=196
2c#
2d#
=197
4f
4C#
2C#
=198
2C#
4C#
4CC#
=199
2CC#
4C#[
4C#]
=200
2.C#
8r
8c#
=201
2b-
2g#
=202
4FF
2FF
8r
8f
=203
2dd
4.cc
8f
=204
2b
4cc
8r
8f
=205
2b
4cc
8r
8f
=206
2a
4b-
8r
8e
=207
2g#
4a
8.f
32f[
32f]
=208
4FF
8.f
32f[
32f]
4FF
8.f
32f[
32f]
=209
4FF
8.f
32f[
32f]
4FF
8.f
32f[
32f]
=210
4FF
8.f
32f[
32f]
4FF
8.f
32f[
32f]
=211
4FF
8.f
32f[
32f]
4FF
8.f
32f[
32f]
=212
4FF
8.f
32f[
32f]
4FF
8.f
32f[
32f]
=213
4FF
8.f
32f[
32f]
4FF
8.f
32f[
32f]
=214
4FF
8.f
32f[
32f]
4FF
8.f
32f[
32f]
=215
4CC
8.c
32c[
32c]
4CC
4C
=216
8r
8CC
4FF[
8FF]
8CC
8FF
8GG#
=217
4.FF
8CC
8FF
8GG#
8FF
8CC
=218
8FF
8GG#
4C[
8C]
8BB-
4BB-[
=219
8BB-]
8AA
4AA[
8AA]
8GG#
4GG#
=220
4.F
8F
4f
8F
8F
=221
4.F
8F
4f
8F
8F
=222
8r
8G
4g
8r
8G
4g
=223
8r
8GG
4G
8r
8CC
4c
=224
8r
8C
4D#[
8D#]
8C
8D#
8F
=225
4.D#
8C
8D#
8F
8D#
8C
=226
8D#
8F
4D#[
8D#]
8d#
4d#
=227
2.f#[
8f#]
8D
=228
4.G
8D
8G
8B
[4G
=229
8G]
8D
8G
8B
8G
8D
8G
8B
=230
4.d
8g
4.g
8g#
=231
4g#
4f
4e
4d
=232
4c#
4B-
4A
4G
=233
4F#
4D#
4D
4C
=234
4r
4D#
4D
4C
=235
4BB
4r
2r
=236
1r
=237
1r
=238
2r
4r
4F#
=239
4B
4A
4G
4F#
=240
4E
8F#
8C#
4E
4D#
=241
4D
8E
8BB
4D
4C
=242
4AA
4GG
4FF#
4BB[
=243
2BB]
2r
=244
4r
4G
4F#
4B[
=245
2B]
2r
=246
4r
4E
4BB
4B
=247
4r
4E
4BB
4B
=248
4r
4E
2BB
=249
4r
4E
2BB[
=250
4BB]
4C
2BB
=251
4BB
2AA
4FF#
=252
2EE
4.GG
8BB
=253
2C
2BB
=254
8AA
16BB
16AA
8GG
8AA
4.BB
8GG
=255
2EE
2FF#
=256
8FF#
8DD#
8FF#
8BB
4.D#
8F#
=257
2F#
2FF#
=258
2G
4.FF#
16GG#
16AA#
=259
2BB
2r
=260
2c
4.d
8e
=261
1d
=262
2c
12d
12r
12e
16r
8.f#
=263
4e
2.d
=264
2e
4.f#
8g
=265
2f#
4.g
8a
=266
2g
4.a
8b
=267
2cc
2cc
=268
2.cc
4a
=269
4g
4f#
4a
4f#
=270
4e
4d#
4f#
4d#
=271
4d
4c
4B
4A
=272
4A
4G
4F#
4E
=273
6A
6G
6F#
6G
6D#
6E
=274
4C
4BB
4GG
4EE
=275
6C
6BB
6AA
6BB
6FF#
6GG
=276
2GG
4r
4GG
=277
8r
8CC
8GG
8C
4.E
8b-
=278
2b-
2B-
=279
8r
8FF
8C
8F
4.A
8cc
=280
2cc
2c
=281
2.BB
8C#
8D#
=282
4E
2BB
8AA
8FF#
=283
1EE
=284
1CC
=285
2FF
4.AA
8C
=286
2C#
2C
=287
8BB
16C
16BB
8AA#
8BB
4.C
8C
=288
2C#
4C
4C
=289
2C
4CC
4CC
=290
2C
4CC
4CC
=291
2BB-
2AA
=292
2GG
2C
=293
4B-
4A
4A
4B-
=294
2d
4c
4F
=295
4f
4e
4e
4f
=296
2a
4g
4c
=297
4cc
4b
4b
4cc
=298
4cc
4b
4b
4cc
=299
4b-
4a
4a
4b-
=300
4g#
4g
4g
4g#
=301
4a
4g#
4g#
4a
=302
4a
4g#
4g#
4a
=303
4g
4f#
4f#
4g
=304
4f#
4e
4e
4f#
=305
4d#
4r
8r
8BB
8D#
8F#
=306
2A
4G
4F#
=307
8r
8B
8d#
8f#
2a
=308
4g
4f#
4r
8r
8B
=309
4.e
8B
8e
8g
4e[
=310
8e]
8B
8e
8g
8e
8B
8e
8g
=311
4.b
8cc
4.cc
8f#
=312
4.b
8ee
4.ee
8e
=313
4.f#
8g
4a
8g
8f#
=314
8g
24a
24g
24f#
8f#
8g
8b
8a
8g
8f#
=315
4.e
8f#
4.d#
8f#
=316
4.c#
8f#
4B
4BB
=317
2.E
4E
=318
8E
8G
2E
4E
=319
8E
8G
4E[
8E]
8GG
8E
8G
=320
8E
8GG
8E
8G
8E
8GG
8E
8G
=321
4.B
8c
4.c
8B
=322
4.B
8c
4.c
8B
=323
4.F#
8G
4A
8G
8F#
=324
4.F#
8G
8B
8A
8G
8F#
=325
4.E
8F#
4.E
8F#
=326
4.E
8F#
4.E
8F#
=327
4E
4BB
2C[
=328
4C]
4BB
2r
=329
4BB
4EE
4B
4E
=330
4BB
4EE
4BB
4EE
=331
4BB
4EE
4BB
4EE
=332
4BB
4EE
4BB
4EE
=333
4BB
4EE
4r
4B
=334
4d
4c#
4c
4B
=335
4A#
8B
8E
4G
4F#
=336
4g#
8a
8f#
4a
4g#
=337
4f#
4e
2B
=338
4e
4B
2G#
=339
4A
4G#
2F#
=340
4G#
4F#
2E
=341
4F#
4E
2BB[
=342
4BB]
4F#
4E
4BB
=343
4EE
4BB
4EE
4BB
=344
4EE
2EE
4BB
=345
4EE
2EE
8r
8B
=346
1c
=347
1B
=348
1A
=349
1G#
=350
2F#
2c#
=351
2B
2A
=352
4G#
4r
2r
=353
1r
=354
2r
4r
4EE
=355
2E
2F
=356
2D#
2E
=357
2C#
2C[
=358
2C]
4BB
4G#
=359
2F#
2c#
=360
2B
2A
=361
2G#
2b
=362
2a
2g#
=363
2f#
2e
=364
2d#
2c#
=365
2c
2B
=366
2A#
4B
4G#
=367
4F#
4E
2BB[
=368
4BB]
4F#
4E
4BB
=369
1GG#
=370
1GG#
=371
[1GG#
=372
1GG#]
==
*-
